public/formular-icons/english/upper-y.svg

<svg style="vertical-align:0" xmlns="http://www.w3.org/2000/svg" width="1.726ex" height="1.545ex" viewBox="0 -683 763 683" xmlns:xlink="http://www.w3.org/1999/xlink"><defs><path id="a" d="M66 637H49q-5 0-10 1t-7 3-2 6 3 17 9 18q2 1 14 1 48-3 109-3 123 0 141 3h10q6-6 6-9t-2-18q-4-13-10-19h-12q-56 0-56-13 0-5 50-147t51-144l3 3q4 4 12 13t21 24 32 37 43 51q92 107 107 126t16 31q0 16-32 19-17 0-17 10 0 2 2 14 3 15 5 18t14 4q2 0 29-1t79-2q27 0 56 1t33 1q17 0 17-9 0-4-3-16t-5-14q-2-6-21-6-72-5-117-50-9-9-140-163L348 273l-26-104Q295 62 295 57q0-11 68-11 16 0 21-1t6-10q0-2-2-12-4-17-6-19t-16-3h-42q-37 0-92 1h-94q-32 0-36-1-18 0-18 8 0 5 3 15l2 6q1 3 1 5t1 4 2 3 3 2 5 1 6 0 9 1 13 0q39 1 51 4t18 13q3 5 29 108l25 103-123 349-2 2-2 2q-1 1-3 2t-4 2-5 2-8 1-9 1-13 1-17 1Z"/></defs><g stroke="currentColor" fill="currentColor" stroke-width="0"><use data-c="1D44C" xlink:href="#a" transform="scale(1 -1)"/></g></svg>

<svg style="vertical-align: 0" xmlns="http://www.w3.org/2000/svg" width="1.726ex" height="1.545ex" role="img" focusable="false" viewBox="0 -683 763 683" xmlns:xlink="http://www.w3.org/1999/xlink"><defs><path id="MJX-80-TEX-I-1D44C" d="M66 637Q54 637 49 637T39 638T32 641T30 647T33 664T42 682Q44 683 56 683Q104 680 165 680Q288 680 306 683H316Q322 677 322 674T320 656Q316 643 310 637H298Q242 637 242 624Q242 619 292 477T343 333L346 336Q350 340 358 349T379 373T411 410T454 461Q546 568 561 587T577 618Q577 634 545 637Q528 637 528 647Q528 649 530 661Q533 676 535 679T549 683Q551 683 578 682T657 680Q684 680 713 681T746 682Q763 682 763 673Q763 669 760 657T755 643Q753 637 734 637Q662 632 617 587Q608 578 477 424L348 273L322 169Q295 62 295 57Q295 46 363 46Q379 46 384 45T390 35Q390 33 388 23Q384 6 382 4T366 1Q361 1 324 1T232 2Q170 2 138 2T102 1Q84 1 84 9Q84 14 87 24Q88 27 89 30T90 35T91 39T93 42T96 44T101 45T107 45T116 46T129 46Q168 47 180 50T198 63Q201 68 227 171L252 274L129 623Q128 624 127 625T125 627T122 629T118 631T113 633T105 634T96 635T83 636T66 637Z"></path></defs><g stroke="currentColor" fill="currentColor" stroke-width="0" transform="scale(1,-1)"><g data-mml-node="math"><g data-mml-node="mi"><use data-c="1D44C" xlink:href="#MJX-80-TEX-I-1D44C"></use></g></g></g></svg>
